X: 21888
T: Kiss The Maid Behind The Barrel
R: reel
M: 4/4
K: Gmajor
||D~G3 AGGE|D~G3 cAGE|D~G3 A2 (3ABc|defd cAFA|
D~G3 AGGE|D~G3 cAFA|B4c2 (3 ABc|defd cAFA||
dgfg agfe|dgfg agfe|d~f3 a~f3|defd cAFA
d~g3 b~g3|abag fefg|afge fdec|d2 eg fdcA||
G2dG BGdG|G2dG cAFA|G2dG BABc|defd cAFA|
G2dG BGdG|G2dG cAFA|G2dG BABc|defd cAFA||
g2 bg agab|g2bg defd|g2 bg agbg|defd cAFA|
g2 bg agab|g2bg defg|abag f3e|d2ed cAFA||
(3 Bcd BG (3 ABc AF|G4 cAGA|(3 Bcd BG A2 (3 ABc|defd cAFA|
~B3d A4|G2B2 cAGA|~B3d A2 (3 ABc|defd cAFA||
G2AA G2 (3 DEF|GABG cAFA|G2AA G2 (3 ABc|defd cAFA|
G2AA G2 (3 DEF|GABG cAFA|(3 EFG AB c2 (3ABc|defd cAFA||

